src/icons/logos/strapi.svg

<svg width="729" height="220" viewBox="0 0 729 220" fill="none" xmlns="http://www.w3.org/2000/svg">
<path fill-rule="evenodd" clip-rule="evenodd" d="M157.381 43.9719H51.6963V96.9144H103.698C105.551 96.9144 107.054 98.4161 107.054 100.267V151.506H160.736V47.3306C160.737 46.8898 160.651 46.4532 160.483 46.0457C160.314 45.6382 160.067 45.2679 159.756 44.956C159.444 44.644 159.074 44.3965 158.666 44.2276C158.259 44.0588 157.822 43.9719 157.381 43.9719V43.9719Z" fill="currentColor"/>
<path opacity="0.405" fill-rule="evenodd" clip-rule="evenodd" d="M51.6901 43.9719V96.9144H2.11145C1.77834 96.9139 1.45291 96.8144 1.17649 96.6287C0.900062 96.4429 0.685101 96.1793 0.558897 95.8713C0.432692 95.5633 0.400935 95.2248 0.467656 94.8987C0.534377 94.5727 0.696568 94.2737 0.933639 94.0399L51.6901 43.9719ZM109.912 201.629C109.676 201.861 109.377 202.018 109.052 202.08C108.727 202.142 108.391 202.108 108.086 201.98C107.78 201.852 107.52 201.638 107.336 201.363C107.152 201.088 107.054 200.764 107.054 200.434V151.506H160.736L109.912 201.623V201.629Z" fill="currentColor"/>
<path opacity="0.405" d="M51.6895 96.9144H105.378C106.298 96.9144 107.053 97.6622 107.053 98.5877V151.506H55.0511C54.1612 151.506 53.3077 151.152 52.6784 150.524C52.0491 149.895 51.6956 149.042 51.6956 148.153V96.9144H51.6895Z" fill="currentColor"/>
<path fill-rule="evenodd" clip-rule="evenodd" d="M702.073 40.6316C705.072 43.5981 708.612 45.0752 712.697 45.0752C716.912 45.0752 720.519 43.5981 723.519 40.6316C726.518 37.6652 728.015 34.1716 728.015 30.1326C728.015 26.0997 726.518 22.5694 723.519 19.5416C722.125 18.0816 720.444 16.9247 718.582 16.1433C716.72 15.3618 714.717 14.9726 712.697 15C708.612 15 705.072 16.5139 702.073 19.5355C699.073 22.5694 697.576 26.0936 697.576 30.1387C697.576 34.1716 699.073 37.6652 702.073 40.6316V40.6316ZM376.578 79.3181C376.578 79.6245 376.321 79.882 376.008 79.882H354.936V119.23C354.936 122.509 355.77 124.906 357.427 126.42C359.083 127.934 361.512 128.779 364.702 128.969C367.622 129.147 371.18 129.135 375.382 128.939L375.977 128.908C376.054 128.904 376.131 128.915 376.203 128.942C376.275 128.968 376.341 129.009 376.396 129.062C376.452 129.115 376.496 129.178 376.527 129.249C376.557 129.319 376.572 129.395 376.572 129.472V150.501C376.573 150.64 376.522 150.775 376.429 150.879C376.336 150.983 376.208 151.049 376.069 151.065L375.683 151.107C359.181 152.842 347.507 151.23 340.674 146.278C333.717 141.234 330.245 132.218 330.245 119.23V79.882H314.148C313.998 79.882 313.855 79.8225 313.749 79.7168C313.643 79.611 313.584 79.4676 313.584 79.3181V56.99C313.584 56.6836 313.835 56.4261 314.148 56.4261H330.239V40.8155C330.239 40.3619 330.509 39.9574 330.92 39.7736L354.145 29.679C354.231 29.64 354.325 29.6233 354.42 29.6302C354.514 29.6372 354.605 29.6677 354.684 29.719C354.764 29.7702 354.829 29.8405 354.874 29.9235C354.919 30.0065 354.942 30.0995 354.942 30.1939V56.4261H376.008C376.315 56.4261 376.572 56.6774 376.572 56.99V79.3181H376.578ZM421.36 72.6987C423.654 66.6432 427.451 62.1016 432.746 59.0739C437.969 56.1029 443.875 54.5399 449.885 54.5384C450.198 54.5384 450.456 54.7897 450.456 55.1084V80.7584C450.455 80.8868 450.428 81.0136 450.376 81.1309C450.324 81.2482 450.248 81.3532 450.152 81.4392C450.057 81.5252 449.945 81.5904 449.822 81.6304C449.7 81.6704 449.571 81.6845 449.443 81.6716C442.321 81.0342 435.923 82.5848 430.255 86.3174C424.323 90.2216 421.36 96.7184 421.36 105.802V150.446C421.36 150.52 421.345 150.594 421.316 150.663C421.288 150.732 421.246 150.794 421.193 150.846C421.139 150.899 421.077 150.94 421.007 150.968C420.938 150.996 420.864 151.01 420.789 151.009H397.221C397.071 151.009 396.928 150.95 396.822 150.844C396.716 150.738 396.657 150.595 396.657 150.446V56.9839C396.657 56.6774 396.908 56.42 397.221 56.42H420.789C421.096 56.42 421.354 56.6713 421.354 56.9839V72.6865L421.36 72.6987ZM538.135 56.4261C538.061 56.4253 537.987 56.4393 537.918 56.4673C537.848 56.4953 537.785 56.5367 537.732 56.5891C537.679 56.6416 537.637 56.704 537.608 56.7728C537.58 56.8416 537.565 56.9154 537.565 56.99V67.5932C530.167 58.3813 519.763 53.7784 506.359 53.7784C493.599 53.7784 482.649 58.6019 473.527 68.249C464.399 77.8961 459.835 89.719 459.835 103.718C459.835 117.716 464.399 129.539 473.527 139.186C482.649 148.834 493.599 153.657 506.359 153.657C519.763 153.657 530.161 149.054 537.565 139.848V150.446C537.565 150.752 537.823 151.009 538.135 151.009H561.698C562.011 151.009 562.268 150.758 562.268 150.446V56.9839C562.268 56.9093 562.254 56.8355 562.225 56.7667C562.196 56.6979 562.154 56.6354 562.101 56.583C562.048 56.5305 561.985 56.4891 561.916 56.4612C561.847 56.4332 561.773 56.4192 561.698 56.42H538.135V56.4261ZM492.004 123.012C496.979 127.934 503.292 130.391 510.96 130.391C518.616 130.391 524.965 127.897 530.007 122.914C535.05 117.937 537.565 111.538 537.565 103.718C537.565 95.8971 535.05 89.4984 530.007 84.5155C524.965 79.5387 518.616 77.0442 510.954 77.0442C503.298 77.0442 496.979 79.5387 491.998 84.5216C487.029 89.4984 484.533 95.8971 484.533 103.718C484.533 111.538 487.023 117.968 492.004 123.012V123.012ZM672.051 68.249C662.923 58.6019 651.911 53.7784 639.023 53.7784C625.619 53.7784 615.282 58.3813 608.007 67.5871V56.99C608.007 56.8405 607.947 56.697 607.842 56.5913C607.736 56.4855 607.592 56.4261 607.443 56.4261H583.874C583.724 56.4261 583.581 56.4855 583.475 56.5913C583.369 56.697 583.31 56.8405 583.31 56.99V188.274C583.31 188.586 583.561 188.844 583.874 188.844H607.443C607.749 188.844 608.007 188.586 608.007 188.274V139.848C615.282 149.054 625.619 153.657 639.023 153.657C651.911 153.657 662.923 148.834 672.051 139.186C681.173 129.539 685.737 117.716 685.737 103.718C685.737 89.719 681.173 77.8961 672.051 68.249V68.249ZM615.472 123.012C620.454 127.934 626.766 130.391 634.428 130.391C642.084 130.391 648.433 127.897 653.475 122.914C658.518 117.937 661.039 111.538 661.039 103.718C661.039 95.8971 658.518 89.4984 653.475 84.5155C648.433 79.5387 642.084 77.0442 634.428 77.0442C626.766 77.0442 620.454 79.5387 615.472 84.5216C610.497 89.4984 608.007 95.8971 608.007 103.718C608.007 111.538 610.497 117.968 615.472 123.012V123.012ZM701.011 151.009C700.862 151.009 700.718 150.95 700.612 150.844C700.506 150.738 700.447 150.595 700.447 150.446V56.9839C700.447 56.6774 700.698 56.42 701.011 56.42H724.58C724.893 56.42 725.144 56.6713 725.144 56.9839V150.452C725.144 150.601 725.085 150.745 724.979 150.85C724.873 150.956 724.73 151.015 724.58 151.015H701.011V151.009ZM260.65 89.4371C257.263 87.862 255.576 85.8087 255.576 83.2897C255.576 80.8932 256.625 78.9994 258.736 77.6142C260.84 76.229 263.49 75.5303 266.68 75.5303C272.796 75.5303 277.415 77.89 280.544 82.6032C280.648 82.7633 280.805 82.8816 280.988 82.9376C281.171 82.9936 281.367 82.9837 281.544 82.9097L302.388 73.7958C302.46 73.7635 302.525 73.7165 302.578 73.6577C302.63 73.5989 302.67 73.5298 302.695 73.4547C302.719 73.3796 302.727 73.3002 302.719 73.2217C302.71 73.1432 302.686 73.0674 302.646 72.999C302.406 72.5994 302.161 72.2031 301.91 71.81C298.346 66.2632 293.727 62.1261 287.929 58.9819C281.55 55.5129 274.464 53.7784 266.68 53.7784C256.337 53.7784 247.694 56.4568 240.731 61.8197C233.781 67.1765 230.302 74.5252 230.302 83.8536C230.302 90.0378 231.996 95.1739 235.376 99.2742C238.642 103.289 242.898 106.385 247.724 108.259C252.571 110.147 257.423 111.728 262.275 112.985C267.121 114.247 271.244 115.669 274.624 117.245C278.004 118.82 279.697 120.867 279.697 123.392C279.697 128.816 275.293 131.525 266.49 131.525C258.104 131.525 252.294 128.461 249.062 122.344C248.932 122.086 248.709 121.887 248.437 121.788C248.166 121.689 247.867 121.697 247.602 121.811L226.818 130.912C226.749 130.943 226.686 130.987 226.634 131.042C226.582 131.097 226.542 131.162 226.516 131.233C226.489 131.303 226.478 131.379 226.481 131.454C226.485 131.53 226.503 131.604 226.536 131.672L226.769 132.144C234.032 146.486 247.27 153.657 266.49 153.657C277.464 153.657 286.623 151.04 293.96 145.812C301.303 140.572 304.971 133.1 304.971 123.392C304.971 116.956 303.278 111.6 299.898 107.309C296.711 103.169 292.436 99.9949 287.549 98.1403C282.793 96.3407 277.934 94.8242 272.998 93.5987C268.146 92.3974 264.03 91.0123 260.65 89.431V89.4371Z" fill="currentColor"/>
</svg>

<svg xmlns="http://www.w3.org/2000/svg" width="729" height="220" fill="none">
    <path fill="currentColor" fill-rule="evenodd"
        d="M157.381 43.972H51.696v52.942h52.002a3.355 3.355 0 0 1 3.356 3.353v51.239h53.682V47.331a3.351 3.351 0 0 0-3.355-3.36Z"
        clip-rule="evenodd" />
    <path fill="currentColor" fill-rule="evenodd"
        d="M51.69 43.972v52.942H2.111A1.681 1.681 0 0 1 .468 94.9a1.68 1.68 0 0 1 .466-.86L51.69 43.973Zm58.222 157.657a1.674 1.674 0 0 1-1.826.351 1.682 1.682 0 0 1-1.032-1.546v-48.928h53.682l-50.824 50.117v.006Z"
        clip-rule="evenodd" opacity=".405" />
    <path fill="currentColor"
        d="M51.69 96.914h53.688c.92 0 1.675.748 1.675 1.674v52.918H55.051a3.353 3.353 0 0 1-3.355-3.353V96.914h-.006Z"
        opacity=".405" />
    <path fill="currentColor" fill-rule="evenodd"
        d="M702.073 40.632c2.999 2.966 6.539 4.443 10.624 4.443 4.215 0 7.822-1.477 10.822-4.443 2.999-2.967 4.496-6.46 4.496-10.5 0-4.032-1.497-7.563-4.496-10.59A14.68 14.68 0 0 0 712.697 15c-4.085 0-7.625 1.514-10.624 4.535-3 3.034-4.497 6.559-4.497 10.604 0 4.033 1.497 7.526 4.497 10.493ZM376.578 79.318a.571.571 0 0 1-.57.564h-21.072v39.348c0 3.279.834 5.676 2.491 7.19 1.656 1.514 4.085 2.359 7.275 2.549 2.92.178 6.478.166 10.68-.03l.595-.031a.56.56 0 0 1 .55.341c.03.07.045.146.045.223v21.029a.562.562 0 0 1-.503.564l-.386.042c-16.502 1.735-28.176.123-35.009-4.829-6.957-5.044-10.429-14.06-10.429-27.048V79.882h-16.097a.564.564 0 0 1-.564-.564V56.99c0-.306.251-.564.564-.564h16.091v-15.61c0-.454.27-.859.681-1.042l23.225-10.095a.565.565 0 0 1 .797.515v26.232h21.066c.307 0 .564.251.564.564v22.328h.006Zm44.782-6.62c2.294-6.055 6.091-10.596 11.386-13.624a34.681 34.681 0 0 1 17.139-4.536.57.57 0 0 1 .571.57v25.65a.907.907 0 0 1-.634.872.92.92 0 0 1-.379.042c-7.122-.638-13.52.913-19.188 4.645-5.932 3.905-8.895 10.401-8.895 19.485v44.644a.561.561 0 0 1-.353.522.56.56 0 0 1-.218.041h-23.568a.563.563 0 0 1-.564-.563V56.984c0-.307.251-.564.564-.564h23.568c.307 0 .565.251.565.564v15.702l.006.013Zm116.775-16.272a.562.562 0 0 0-.57.564v10.603c-7.398-9.212-17.802-13.815-31.206-13.815-12.76 0-23.71 4.824-32.832 14.471-9.128 9.647-13.692 21.47-13.692 35.469 0 13.998 4.564 25.821 13.692 35.468 9.122 9.648 20.072 14.471 32.832 14.471 13.404 0 23.802-4.603 31.206-13.809v10.598c0 .306.258.563.57.563h23.563c.313 0 .57-.251.57-.563V56.984a.558.558 0 0 0-.352-.523.563.563 0 0 0-.218-.041h-23.563v.006Zm-46.131 66.586c4.975 4.922 11.288 7.379 18.956 7.379 7.656 0 14.005-2.494 19.047-7.477 5.043-4.977 7.558-11.376 7.558-19.196 0-7.82-2.515-14.22-7.558-19.203-5.042-4.976-11.391-7.47-19.053-7.47-7.656 0-13.975 2.494-18.956 7.477-4.969 4.976-7.465 11.375-7.465 19.196 0 7.82 2.49 14.25 7.471 19.294Zm180.047-54.763c-9.128-9.647-20.14-14.47-33.028-14.47-13.404 0-23.741 4.602-31.016 13.808V56.99a.567.567 0 0 0-.564-.564h-23.569a.564.564 0 0 0-.564.564v131.284c0 .312.251.57.564.57h23.569a.572.572 0 0 0 .564-.57v-48.426c7.275 9.206 17.612 13.809 31.016 13.809 12.888 0 23.9-4.823 33.028-14.471 9.122-9.647 13.686-21.47 13.686-35.468 0-13.999-4.564-25.822-13.686-35.469Zm-56.579 54.763c4.982 4.922 11.294 7.379 18.956 7.379 7.656 0 14.005-2.494 19.047-7.477 5.043-4.977 7.564-11.376 7.564-19.196 0-7.82-2.521-14.22-7.564-19.203-5.042-4.976-11.391-7.47-19.047-7.47-7.662 0-13.974 2.494-18.956 7.477-4.975 4.976-7.465 11.375-7.465 19.196 0 7.82 2.49 14.25 7.465 19.294Zm85.539 27.997a.565.565 0 0 1-.564-.563V56.984c0-.307.251-.564.564-.564h23.569c.313 0 .564.251.564.564v93.468a.56.56 0 0 1-.564.563h-23.569v-.006ZM260.65 89.437c-3.387-1.575-5.074-3.628-5.074-6.147 0-2.397 1.049-4.29 3.16-5.676 2.104-1.385 4.754-2.084 7.944-2.084 6.116 0 10.735 2.36 13.864 7.073a.813.813 0 0 0 1 .307l20.844-9.114a.57.57 0 0 0 .307-.341c.024-.075.032-.155.024-.233a.568.568 0 0 0-.073-.223c-.24-.4-.485-.796-.736-1.189-3.564-5.547-8.183-9.684-13.981-12.828-6.379-3.47-13.465-5.204-21.249-5.204-10.343 0-18.986 2.679-25.949 8.042-6.95 5.357-10.429 12.705-10.429 22.034 0 6.184 1.694 11.32 5.074 15.42a29.842 29.842 0 0 0 12.348 8.985 129.775 129.775 0 0 0 14.551 4.726c4.846 1.262 8.969 2.684 12.349 4.26 3.38 1.575 5.073 3.622 5.073 6.147 0 5.424-4.404 8.133-13.207 8.133-8.386 0-14.196-3.064-17.428-9.181a1.134 1.134 0 0 0-1.46-.533l-20.784 9.101a.556.556 0 0 0-.337.542c.004.076.022.15.055.218l.233.472c7.263 14.342 20.501 21.513 39.721 21.513 10.974 0 20.133-2.617 27.47-7.845 7.343-5.24 11.011-12.712 11.011-22.42 0-6.436-1.693-11.792-5.073-16.083a28.218 28.218 0 0 0-12.349-9.169 128.845 128.845 0 0 0-14.551-4.541c-4.852-1.202-8.968-2.587-12.348-4.168v.006Z"
        clip-rule="evenodd" />
</svg>
